X:1
T:Reel du Bouchon
M:C
L:1/8
Q:240
C:(c) Greg Anderson, 28 June 2000
R:Reel
H:A little reel to celebrate a year of drinking great wines in Bordeaux
K:D
DE FE DE A z|f2 fg fe d2|ef ed cd e2|dc de fd AF|
DE FE DE A z|f2 fg fe d2|ef ed cd e2|1dc de d z FE:|
2dc de d z g2||b2 ba ga b z|ab ag d2 d2|ef ed cA Bc|
dc df a z a2|b2 ba ga b z|ab ag d2 d2|ef ed cd ec|
1dc de fd fa:|2d2 A2 D2 FE||
